!!!OTL: Der Vorwirt Es wollt' ein Herr ausreiten,
!!!ARE: Europa, Mitteleuropa, Deutschland / France, Lothringen, Walscheid
!!!YOR: 5, S. 1
!!    1933 aufgezeichnet
!!!SCT: Q0089A
!!!YEM: Copyright 1995, estate of Helmut Schaffrath.
**kern
*ICvox
*Ivox
*M4/4
*k[b-e-]
*g:
{8d
=1
4.d
8g
4g
4g
=2
4fn
8g
8a
4b-}
{4a
=3
4g
4g
8a
8a
4a
=4
4d
4g
4fn
8r}
{8d
=5
4.a
8b-
8cc
8cc
8a
8cc
=6
8b-
8a
8b-
8a
4g}
{4g
=7
4d
4e
4fn
4g
=8
8b-
8a
8g
8f#
4g
8r}
==
!!!AGN: Ballade, Mord, Grab, Auferstehen, Geist
!!!ONB: ESAC (Essen Associative Code) Database: BALLADE
!!!AMT: simple quadruple
!!!AIN: vox
!!!EED: Helmut Schaffrath
!!!EEV: 1.0
*-
